apps/16/genymotion-player.svg

<?xml version="1.0" encoding="UTF-8" standalone="no"?>
<!-- Created with Inkscape (http://www.inkscape.org/) -->

<svg
   xmlns:dc="http://purl.org/dc/elements/1.1/"
   xmlns:cc="http://creativecommons.org/ns#"
   xmlns:rdf="http://www.w3.org/1999/02/22-rdf-syntax-ns#"
   xmlns:svg="http://www.w3.org/2000/svg"
   xmlns="http://www.w3.org/2000/svg"
   xmlns:sodipodi="http://sodipodi.sourceforge.net/DTD/sodipodi-0.dtd"
   xmlns:inkscape="http://www.inkscape.org/namespaces/inkscape"
   version="1.1"
   width="16"
   height="16"
   id="svg2"
   inkscape:version="0.92.2 5c3e80d, 2017-08-06"
   sodipodi:docname="genymotion-player.svg">
  <sodipodi:namedview
     pagecolor="#ffffff"
     bordercolor="#666666"
     borderopacity="1"
     objecttolerance="10"
     gridtolerance="10"
     guidetolerance="10"
     inkscape:pageopacity="0"
     inkscape:pageshadow="2"
     inkscape:window-width="1920"
     inkscape:window-height="1033"
     id="namedview6"
     showgrid="true"
     inkscape:zoom="29.5"
     inkscape:cx="4.2168245"
     inkscape:cy="10.623279"
     inkscape:window-x="-10"
     inkscape:window-y="25"
     inkscape:window-maximized="1"
     inkscape:current-layer="svg2"
     inkscape:snap-global="false">
    <inkscape:grid
       type="xygrid"
       id="grid2982"
       empspacing="5"
       visible="true"
       enabled="true"
       snapvisiblegridlinesonly="true" />
  </sodipodi:namedview>
  <defs
     id="defs4" />
  <metadata
     id="metadata7">
    <rdf:RDF>
      <cc:Work
         rdf:about="">
        <dc:format>image/svg+xml</dc:format>
        <dc:type
           rdf:resource="http://purl.org/dc/dcmitype/StillImage" />
        <dc:title></dc:title>
      </cc:Work>
    </rdf:RDF>
  </metadata>
  <path
     inkscape:connector-curvature="0"
     id="path814"
     d="M 7.6308594,0.00195279 C 6.3358603,0.06052859 5.0645039,0.43136129 3.9316406,1.1015622 1.1821577,2.7281506 -0.33859181,5.8244778 0.0546875,8.9941411 0.3231449,11.157804 1.4679864,13.117072 3.2226562,14.425781 4.4502689,15.34139 5.9327542,15.890101 7.4589844,15.990234 9.457843,16.121369 11.435341,15.50545 12.990234,14.261719 15.449299,12.294762 16.528565,9.0927491 15.763672,6.0351559 15.052607,3.1927232 12.804724,0.94724449 9.962891,0.23632779 9.192192,0.04352929 8.4081151,-0.03320151 7.6308594,0.00195279 Z m 0.044922,0.9980469 c 0.6801723,-0.030763 1.3672868,0.037514 2.0449218,0.20703121 2.4790948,0.6201736 4.4520938,2.5912184 5.0722658,5.0703126 0.672059,2.6864976 -0.268156,5.4757215 -2.427735,7.2031255 -1.357572,1.085897 -3.088433,1.626619 -4.8398434,1.511719 C 6.1969138,14.905029 4.8897803,14.422657 3.8203125,13.625 2.2816419,12.477392 1.2817024,10.763712 1.046875,8.8710941 0.7019518,6.0911602 2.0295725,3.3897261 4.4414062,1.9628903 5.4321972,1.3767392 6.5421616,1.0512759 7.6757814,0.99999969 Z M 10.857422,4.9765622 c -1.6403648,0 -2.9804687,1.3420572 -2.9804687,2.9824219 0,1.640365 1.3401039,2.9804689 2.9804687,2.9804689 1.640365,0 2.982422,-1.3401039 2.982422,-2.9804689 0,-1.6403647 -1.342057,-2.9824219 -2.982422,-2.9824219 z m 0,1 c 1.099924,0 1.982422,0.8824974 1.982422,1.9824219 0,1.099925 -0.882498,1.980469 -1.982422,1.980469 -1.0999248,0 -1.9804687,-0.880544 -1.9804687,-1.980469 0,-1.0999245 0.8805439,-1.9824219 1.9804687,-1.9824219 z m -6.3261718,0.00781 c -1.3689834,0 -2.4902344,1.1192982 -2.4902344,2.4882819 0,1.368983 1.121251,2.4902349 2.4902344,2.4902349 1.3689834,0 2.4882812,-1.1212519 2.4882812,-2.4902349 0,-1.3689838 -1.1192978,-2.4882819 -2.4882812,-2.4882819 z m 0,1 c 0.8285432,0 1.4882812,0.6597381 1.4882812,1.4882819 0,0.828543 -0.659738,1.490235 -1.4882812,1.490235 -0.8285432,0 -1.4902344,-0.661692 -1.4902344,-1.490235 0,-0.8285438 0.6616912,-1.4882819 1.4902344,-1.4882819 z"
     style="color:#000000;font-style:normal;font-variant:normal;font-weight:normal;font-stretch:normal;font-size:medium;line-height:normal;font-family:sans-serif;font-variant-ligatures:normal;font-variant-position:normal;font-variant-caps:normal;font-variant-numeric:normal;font-variant-alternates:normal;font-feature-settings:normal;text-indent:0;text-align:start;text-decoration:none;text-decoration-line:none;text-decoration-style:solid;text-decoration-color:#000000;letter-spacing:normal;word-spacing:normal;text-transform:none;writing-mode:lr-tb;direction:ltr;text-orientation:mixed;dominant-baseline:auto;baseline-shift:baseline;text-anchor:start;white-space:normal;shape-padding:0;clip-rule:nonzero;display:inline;overflow:visible;visibility:visible;opacity:1;isolation:auto;mix-blend-mode:normal;color-interpolation:sRGB;color-interpolation-filters:linearRGB;solid-color:#000000;solid-opacity:1;vector-effect:none;fill:#27303a;fill-opacity:0.75328082;fill-rule:nonzero;stroke:none;stroke-width:1;stroke-linecap:butt;stroke-linejoin:miter;stroke-miterlimit:4;stroke-dasharray:none;stroke-dashoffset:0;stroke-opacity:1;marker:none;color-rendering:auto;image-rendering:auto;shape-rendering:auto;text-rendering:auto;enable-background:accumulate" />
  <path
     id="path816"
     d="M 7.6757812,0.99999969 C 6.5421616,1.0512759 5.4321972,1.3767392 4.4414062,1.9628903 2.0295725,3.3897261 0.7019518,6.0911602 1.046875,8.8710941 1.2817024,10.763712 2.2816419,12.477392 3.8203125,13.625 4.8897803,14.422657 6.1969138,14.905029 7.5253906,14.992188 9.276801,15.107089 11.007662,14.566366 12.365234,13.480469 14.524813,11.753065 15.465028,8.9638411 14.792969,6.2773435 14.172797,3.7982494 12.199798,1.8272045 9.720703,1.2070309 9.043068,1.0375132 8.3559535,0.96923629 7.6757812,0.99999969 Z M 10.857422,4.9765622 c 1.640365,0 2.982422,1.3420572 2.982422,2.9824219 0,1.640365 -1.342057,2.9804689 -2.982422,2.9804689 -1.640365,0 -2.9804689,-1.3401039 -2.9804689,-2.9804689 0,-1.6403647 1.3401039,-2.9824219 2.9804689,-2.9824219 z m 0,1 c -1.099925,0 -1.9804689,0.8824974 -1.9804689,1.9824219 0,1.099925 0.8805439,1.980469 1.9804689,1.980469 1.099924,0 1.982422,-0.880544 1.982422,-1.980469 0,-1.0999245 -0.882498,-1.9824219 -1.982422,-1.9824219 z m -6.326172,0.00781 c 1.3689834,0 2.4882812,1.119298 2.4882812,2.4882819 0,1.368983 -1.1192978,2.4902349 -2.4882812,2.4902349 -1.3689834,0 -2.4902344,-1.1212519 -2.4902344,-2.4902349 0,-1.3689838 1.121251,-2.4882819 2.4902344,-2.4882819 z m 0,1 c -0.8285432,0 -1.4902344,0.6597381 -1.4902344,1.4882819 0,0.828543 0.6616912,1.490235 1.4902344,1.490235 0.8285432,0 1.4882812,-0.661692 1.4882812,-1.490235 0,-0.8285438 -0.659738,-1.4882819 -1.4882812,-1.4882819 z"
     style="opacity:1;vector-effect:none;fill:#f1f3f5;fill-opacity:0.90288714;stroke:none;stroke-width:2;stroke-linecap:butt;stroke-linejoin:miter;stroke-miterlimit:4;stroke-dasharray:none;stroke-dashoffset:0;stroke-opacity:1;marker:none"
     inkscape:connector-curvature="0" />
</svg>

<?xml version="1.0" encoding="UTF-8"?>
<svg id="a" width="16" height="16" version="1.1" xmlns="http://www.w3.org/2000/svg" xmlns:cc="http://creativecommons.org/ns#" xmlns:dc="http://purl.org/dc/elements/1.1/" xmlns:rdf="http://www.w3.org/1999/02/22-rdf-syntax-ns#">
	<metadata id="b">
		<rdf:RDF>
			<cc:Work rdf:about="">
				<dc:format>image/svg+xml</dc:format>
				<dc:type rdf:resource="http://purl.org/dc/dcmitype/StillImage"/>
				<dc:title/>
			</cc:Work>
		</rdf:RDF>
	</metadata>
	<defs id="k">
		<style id="current-color-scheme" type="text/css">.ColorScheme-Text {color:#090d11;}.ColorScheme-Background{color:#ffffff;}</style>
	</defs>
	<path id="d" d="m7.6309 0.0019528c-1.295 0.058576-2.5664 0.42941-3.6992 1.0996-2.7495 1.6266-4.2702 4.7229-3.877 7.8926 0.26846 2.1637 1.4133 4.1229 3.168 5.4316 1.2276 0.91561 2.7101 1.4643 4.2363 1.5645 1.9989 0.13114 3.9764-0.48478 5.5312-1.7285 2.4591-1.967 3.5383-5.169 2.7734-8.2266-0.71106-2.8424-2.9589-5.0879-5.8008-5.7988-0.7707-0.1928-1.5548-0.26953-2.332-0.23438zm0.044922 0.99805c0.68017-0.030763 1.3673 0.037514 2.0449 0.20703 2.4791 0.62017 4.4521 2.5912 5.0723 5.0703 0.67206 2.6865-0.26816 5.4757-2.4277 7.2031-1.3576 1.0859-3.0884 1.6266-4.8398 1.5117-1.3285-0.087159-2.6356-0.56953-3.7051-1.3672-1.5387-1.1476-2.5386-2.8613-2.7734-4.7539-0.34492-2.7799 0.9827-5.4814 3.3945-6.9082 0.99079-0.58615 2.1008-0.91161 3.2344-0.96289zm3.1816 3.9766c-1.6404 0-2.9805 1.3421-2.9805 2.9824 0 1.6404 1.3401 2.9805 2.9805 2.9805 1.6404 0 2.9824-1.3401 2.9824-2.9805 0-1.6404-1.3421-2.9824-2.9824-2.9824zm0 1c1.0999 0 1.9824 0.8825 1.9824 1.9824 0 1.0999-0.8825 1.9805-1.9824 1.9805-1.0999 0-1.9805-0.88054-1.9805-1.9805 0-1.0999 0.88054-1.9824 1.9805-1.9824zm-6.3262 0.00781c-1.369 0-2.4902 1.1193-2.4902 2.4883 0 1.369 1.1213 2.4902 2.4902 2.4902s2.4883-1.1213 2.4883-2.4902c0-1.369-1.1193-2.4883-2.4883-2.4883zm0 1c0.82854 0 1.4883 0.65974 1.4883 1.4883 0 0.82854-0.65974 1.4902-1.4883 1.4902s-1.4902-0.66169-1.4902-1.4902c0-0.82854 0.66169-1.4883 1.4902-1.4883z" style="fill-opacity:.75;fill:currentColor" class="ColorScheme-Text"/>
	<path id="c" d="m7.6758 1c-1.1336 0.051276-2.2436 0.37674-3.2344 0.96289-2.4118 1.4268-3.7395 4.1283-3.3945 6.9082 0.23483 1.8926 1.2348 3.6063 2.7734 4.7539 1.0695 0.79766 2.3766 1.28 3.7051 1.3672 1.7514 0.1149 3.4823-0.42582 4.8398-1.5117 2.1596-1.7274 3.0998-4.5166 2.4277-7.2031-0.62017-2.4791-2.5932-4.4501-5.0723-5.0703-0.67764-0.16952-1.3647-0.23779-2.0449-0.20703zm3.1816 3.9766c1.6404 0 2.9824 1.3421 2.9824 2.9824 0 1.6404-1.3421 2.9805-2.9824 2.9805s-2.9805-1.3401-2.9805-2.9805c0-1.6404 1.3401-2.9824 2.9805-2.9824zm0 1c-1.0999 0-1.9805 0.8825-1.9805 1.9824 0 1.0999 0.88054 1.9805 1.9805 1.9805 1.0999 0 1.9824-0.88054 1.9824-1.9805 0-1.0999-0.8825-1.9824-1.9824-1.9824zm-6.3262 0.00781c1.369 0 2.4883 1.1193 2.4883 2.4883 0 1.369-1.1193 2.4902-2.4883 2.4902s-2.4902-1.1213-2.4902-2.4902c0-1.369 1.1213-2.4883 2.4902-2.4883zm0 1c-0.82854 0-1.4902 0.65974-1.4902 1.4883 0 0.82854 0.66169 1.4902 1.4902 1.4902s1.4883-0.66169 1.4883-1.4902c0-0.82854-0.65974-1.4883-1.4883-1.4883z" style="fill-opacity:.5;fill:currentColor" class="ColorScheme-Background"/>
</svg>
